src/assets/SOS.svg

<svg viewBox="0 0 24 24" fill="none" xmlns="http://www.w3.org/2000/svg">
  <g clip-path="url(#clip0_205_4572)">
    <path fill-rule="evenodd" clip-rule="evenodd"
      d="M21.6 12C21.6 13.3303 21.3294 14.5973 20.8403 15.7492L18.2882 13.1971C18.3616 12.8093 18.4 12.4091 18.4 12C18.4 11.5909 18.3616 11.1907 18.2882 10.8029L20.8403 8.25085C21.3294 9.40269 21.6 10.6697 21.6 12ZM19.5838 6.11324C19.0911 5.47937 18.5206 4.90891 17.8868 4.41618L15.5972 6.7058C16.2638 7.15967 16.8403 7.73617 17.2942 8.40286L19.5838 6.11324ZM13.1971 5.71176L15.7492 3.15968C14.5973 2.67057 13.3303 2.4 12 2.4C10.6697 2.4 9.40268 2.67057 8.25084 3.15967L10.8029 5.71176C11.1907 5.63839 11.5909 5.6 12 5.6C12.4091 5.6 12.8093 5.63839 13.1971 5.71176ZM17.2942 15.5971L19.5838 17.8868C19.0911 18.5206 18.5206 19.0911 17.8868 19.5838L15.5971 17.2942C16.2638 16.8403 16.8403 16.2638 17.2942 15.5971ZM12 21.6C13.3303 21.6 14.5973 21.3294 15.7492 20.8403L13.1971 18.2882C12.8093 18.3616 12.4091 18.4 12 18.4C11.5909 18.4 11.1907 18.3616 10.8029 18.2882L8.25085 20.8403C9.40269 21.3294 10.6697 21.6 12 21.6ZM6.11324 19.5838L8.40286 17.2942C7.73617 16.8403 7.15967 16.2638 6.7058 15.5972L4.41618 17.8868C4.90891 18.5206 5.47937 19.0911 6.11324 19.5838ZM3.15968 15.7492C2.67057 14.5973 2.4 13.3303 2.4 12C2.4 10.6697 2.67057 9.40268 3.15967 8.25084L5.71176 10.8029C5.63839 11.1907 5.6 11.5909 5.6 12C5.6 12.4091 5.63839 12.8093 5.71176 13.1971L3.15968 15.7492ZM8.40286 6.7058C7.73616 7.15966 7.15966 7.73616 6.7058 8.40286L4.41617 6.11323C4.90891 5.47936 5.47936 4.90891 6.11323 4.41617L8.40286 6.7058ZM24 12C24 18.6274 18.6274 24 12 24C5.37258 24 0 18.6274 0 12C0 5.37258 5.37258 0 12 0C18.6274 0 24 5.37258 24 12ZM8 12C8 9.79086 9.79086 8 12 8C14.2091 8 16 9.79086 16 12C16 14.2091 14.2091 16 12 16C9.79086 16 8 14.2091 8 12Z"
      fill="currentColor" />
  </g>
  <defs>
    <clipPath id="clip0_205_4572">
      <rect width="24" height="24" fill="white" />
    </clipPath>
  </defs>
</svg>

<svg xmlns="http://www.w3.org/2000/svg" fill="none" viewBox="0 0 24 24"><g clip-path="url(#a)"><path fill="currentColor" fill-rule="evenodd" d="M21.6 12a9.57 9.57 0 0 1-.76 3.75l-2.552-2.553a6.433 6.433 0 0 0 0-2.394L20.84 8.25A9.57 9.57 0 0 1 21.6 12m-2.016-5.887a9.658 9.658 0 0 0-1.697-1.697l-2.29 2.29a6.437 6.437 0 0 1 1.697 1.697zm-6.387-.401L15.75 3.16A9.57 9.57 0 0 0 12 2.4a9.57 9.57 0 0 0-3.75.76l2.553 2.552a6.435 6.435 0 0 1 2.394 0m4.097 9.885 2.29 2.29a9.659 9.659 0 0 1-1.697 1.697l-2.29-2.29a6.437 6.437 0 0 0 1.697-1.697M12 21.6a9.57 9.57 0 0 0 3.75-.76l-2.553-2.552a6.433 6.433 0 0 1-2.394 0L8.25 20.84A9.57 9.57 0 0 0 12 21.6m-5.887-2.016 2.29-2.29a6.437 6.437 0 0 1-1.697-1.697l-2.29 2.29a9.658 9.658 0 0 0 1.697 1.697M3.16 15.749A9.57 9.57 0 0 1 2.4 12c0-1.33.27-2.597.76-3.75l2.552 2.553a6.435 6.435 0 0 0 0 2.394zm5.243-9.043a6.435 6.435 0 0 0-1.697 1.697l-2.29-2.29a9.657 9.657 0 0 1 1.697-1.697zM24 12c0 6.627-5.373 12-12 12S0 18.627 0 12 5.373 0 12 0s12 5.373 12 12M8 12a4 4 0 1 1 8 0 4 4 0 0 1-8 0" clip-rule="evenodd"/></g><defs><clipPath id="a"><path fill="#fff" d="M0 0h24v24H0z"/></clipPath></defs></svg>
